X:92
T: SUSANNA SPRANG ZUM THOR HINAUS
N: E0051
O: Europa, Mitteleuropa, Deutschland, Siebengebirge
R: erzaehlendes Volks - Lied, Sage, Mord
M: 4/4
L: 1/8
K: Eb
B,2 | E2G2B2cd | e2dcB2
B2 | e4c4 | e4c4 | B2BAG2
GA | B2B2c2GB | BAGFE2
F2 | G4c4 | B4G2B2 | B2A2F2D2 | E4z2

@@@ Tune index: 3742
